material/.icons/material/gesture-tap.svg

<svg xmlns="http://www.w3.org/2000/svg" viewBox="0 0 24 24"><path d="M10 9a1 1 0 011-1 1 1 0 011 1v4.47l1.21.13 4.94 2.19c.53.24.85.77.85 1.35v4.36c-.03.82-.68 1.47-1.5 1.5H11c-.38 0-.74-.15-1-.43l-4.9-4.2.74-.77c.19-.21.46-.32.74-.32h.22L10 19V9m1-4a4 4 0 014 4c0 1.5-.8 2.77-2 3.46v-1.22c.61-.55 1-1.35 1-2.24a3 3 0 00-3-3 3 3 0 00-3 3c0 .89.39 1.69 1 2.24v1.22C7.8 11.77 7 10.5 7 9a4 4 0 014-4z"/></svg>

<?xml version="1.0" encoding="UTF-8"?><!DOCTYPE svg PUBLIC "-//W3C//DTD SVG 1.1//EN" "http://www.w3.org/Graphics/SVG/1.1/DTD/svg11.dtd"><svg xmlns="http://www.w3.org/2000/svg" xmlns:xlink="http://www.w3.org/1999/xlink" version="1.1" id="mdi-gesture-tap" width="24" height="24" viewBox="0 0 24 24"><path d="M10,9A1,1 0 0,1 11,8A1,1 0 0,1 12,9V13.47L13.21,13.6L18.15,15.79C18.68,16.03 19,16.56 19,17.14V21.5C18.97,22.32 18.32,22.97 17.5,23H11C10.62,23 10.26,22.85 10,22.57L5.1,18.37L5.84,17.6C6.03,17.39 6.3,17.28 6.58,17.28H6.8L10,19V9M11,5A4,4 0 0,1 15,9C15,10.5 14.2,11.77 13,12.46V11.24C13.61,10.69 14,9.89 14,9A3,3 0 0,0 11,6A3,3 0 0,0 8,9C8,9.89 8.39,10.69 9,11.24V12.46C7.8,11.77 7,10.5 7,9A4,4 0 0,1 11,5Z" /></svg>
